Gruvbox-Material-Icons/places/scalable/folder-orange-download.svg

<svg width="256" height="256" style="isolation:isolate" version="1.1" xmlns="http://www.w3.org/2000/svg">
  <path d="m53.04 21c-36.32 0-40.04 2.055-40.04 38.37v52.17h230v-31.98c0-36.32-3.724-42.1-40.04-42.1h-89.34l-16.43-16.46h-44.16z" fill="#af3a03"/>
  <path d="m53.04 70.38c-36.32 0-40.04 3.73-40.04 40.04v84.52c0 36.32 3.722 40.05 40.04 40.05h149.9c36.32 0 40.04-3.731 40.04-40.05v-101c0-36.32-3.722-40.05-40.04-40.05h-83.43l-16.44 16.46h-50.05z" fill="#d65d0e"/>
  <linearGradient id="a" x2="0" y1=".5" y2="-.5" gradientTransform="matrix(230 0 0 181.1 13 53.92)" gradientUnits="userSpaceOnUse">
    <stop stop-color="#ebdbb2" stop-opacity=".07" offset="0"/>
    <stop stop-color="#ebdbb2" stop-opacity="0" offset=".6728"/>
  </linearGradient>
  <path d="m53.04 70.38c-36.32 0-40.04 3.73-40.04 40.04v84.52c0 36.32 3.722 40.05 40.04 40.05h149.9c36.32 0 40.04-3.731 40.04-40.05v-101c0-36.32-3.722-40.05-40.04-40.05h-83.43l-16.44 16.46h-50.05z" fill="url(#a)"/>
  <g opacity=".4">
    <radialGradient id="b" cx=".5" cy=".5" r=".272" fy=".136" gradientTransform="matrix(230 0 0 60.62 13 21)" gradientUnits="userSpaceOnUse">
      <stop stop-color="#ebdbb2" offset="0"/>
      <stop stop-color="#ebdbb2" stop-opacity=".204" offset="1"/>
    </radialGradient>
    <path d="m53.04 21c-36.32 0-40.04 2.055-40.04 38.37v2.059c0-36.32 3.724-38.37 40.04-38.37h44.16l16.43 16.46h89.34c36.32 0 40.04 5.786 40.04 42.1v-2.057c0-36.32-3.724-42.1-40.04-42.1h-89.34l-16.43-16.46h-44.16z" fill="url(#b)"/>
    <radialGradient id="c" cx=".5" cy=".5" r=".272" fx=".482" fy=".211" gradientTransform="matrix(230 0 0 58.56 13 53.92)" gradientUnits="userSpaceOnUse">
      <stop stop-color="#ebdbb2" offset="0"/>
      <stop stop-color="#ebdbb2" stop-opacity=".204" offset="1"/>
    </radialGradient>
    <path d="m119.5 53.92-16.44 16.46h-50.05c-36.32 0-40.04 3.728-40.04 40.04v2.06c0-36.32 3.724-40.05 40.04-40.05h50.05l16.44-16.46h83.43c36.32 0 40.04 3.727 40.04 40.04v-2.057c0-36.32-3.724-40.04-40.04-40.04h-83.43z" fill="url(#c)"/>
  </g>
  <path d="m243 167.1-65.72 65.84h25.68c36.32 0 40.04-3.727 40.04-40.04v-25.8z" fill="#ebdbb2" opacity=".1"/>
  <path d="m13 192.9v2.057c0 36.32 3.724 40.04 40.04 40.04h149.9c36.32 0 40.04-3.729 40.04-40.04v-2.057c0 36.32-3.724 40.04-40.04 40.04h-149.9c-36.32 0-40.04-3.727-40.04-40.04z" opacity=".2"/>
  <g fill="#fe8019">
    <path transform="matrix(1.307 0 0 1 -39.28 0)" d="m94.4 207.2v4.8h67.2v-4.8h-67.2zm19.2-115.2v47.99l-14.4 9e-3s11.2 26.1 28.8 51.41c17.6-25.32 28.8-51.41 28.8-51.41l-14.4-9e-3v-47.99h-28.8zm4.8 4.8h19.2v47.99l11.57 9e-3c-3.123 6.787-9.734 20.18-21.17 37.69-11.44-17.52-18.05-30.9-21.17-37.69l11.57-9e-3v-47.99z" fill="#fe8019"/>
  </g>
</svg>

<svg xmlns="http://www.w3.org/2000/svg" style="isolation:isolate" width="256" height="256">
 <path fill="#af3a03" d="M53.039 21C16.724 21 13 23.055 13 59.371v52.167h230V79.563c0-36.316-3.724-42.102-40.039-42.102h-89.336L97.198 21H53.039z"/>
 <path fill="#d65d0e" d="M53.039 70.384C16.722 70.384 13 74.114 13 110.429v84.524C13 231.269 16.722 235 53.039 235h149.922c36.317 0 40.039-3.731 40.039-40.047V93.969c0-36.316-3.722-40.047-40.039-40.047H119.53l-16.438 16.462H53.039z"/>
 <linearGradient id="a" x2="0" y1=".5" y2="-.5" gradientTransform="matrix(230 0 0 181.078 13 53.922)" gradientUnits="userSpaceOnUse">
  <stop offset="0%" stop-color="#ebdbb2" stop-opacity=".07"/>
  <stop offset="67.282%" stop-color="#ebdbb2" stop-opacity="0"/>
 </linearGradient>
 <path fill="url(#a)" d="M53.039 70.384C16.722 70.384 13 74.114 13 110.429v84.524C13 231.269 16.722 235 53.039 235h149.922c36.317 0 40.039-3.731 40.039-40.047V93.969c0-36.316-3.722-40.047-40.039-40.047H119.53l-16.438 16.462H53.039z"/>
 <g opacity=".4">
  <radialGradient id="b" cx=".5" cy=".5" r=".272" fx=".5" fy=".136" gradientTransform="matrix(230 0 0 60.62 13 21)" gradientUnits="userSpaceOnUse">
   <stop offset="0%" stop-color="#ebdbb2"/>
   <stop offset="100%" stop-color="#ebdbb2" stop-opacity=".204"/>
  </radialGradient>
  <path fill="url(#b)" d="M53.039 21C16.724 21 13 23.055 13 59.371v2.059c0-36.316 3.724-38.373 40.039-38.373h44.159l16.427 16.461h89.336c36.315 0 40.039 5.786 40.039 42.102v-2.057c0-36.316-3.724-42.102-40.039-42.102h-89.336L97.198 21H53.039z"/>
 </g>
 <g opacity=".4">
  <radialGradient id="c" cx=".5" cy=".5" r=".272" fx=".482" fy=".211" gradientTransform="matrix(230 0 0 58.565 13 53.922)" gradientUnits="userSpaceOnUse">
   <stop offset="0%" stop-color="#ebdbb2"/>
   <stop offset="100%" stop-color="#ebdbb2" stop-opacity=".204"/>
  </radialGradient>
  <path fill="url(#c)" d="M119.53 53.922l-16.438 16.462H53.039C16.724 70.384 13 74.112 13 110.427v2.06c0-36.316 3.724-40.046 40.039-40.046h50.053l16.438-16.46h83.431c36.315 0 40.039 3.727 40.039 40.043v-2.057c0-36.316-3.724-40.045-40.039-40.045H119.53z"/>
 </g>
 <path fill="#ebdbb2" opacity=".1" d="M243 167.096l-65.715 65.845h25.676c36.315 0 40.039-3.727 40.039-40.043v-25.802z"/>
 <path opacity=".2" d="M13 192.898v2.057C13 231.271 16.724 235 53.039 235h149.922c36.315 0 40.039-3.729 40.039-40.045v-2.057c0 36.316-3.724 40.043-40.039 40.043H53.039c-36.315 0-40.039-3.727-40.039-40.043z"/>
 <g fill="#d5c4a1">
  <path d="M94.4 207.2v4.8h67.2v-4.8H94.4zM113.6 92v47.991L99.2 140s11.199 26.097 28.8 51.412C145.601 166.097 156.8 140 156.8 140l-14.4-.009V92h-28.8zm4.8 4.8h19.2v47.988l11.569.009c-3.123 6.787-9.734 20.175-21.169 37.691-11.435-17.516-18.046-30.904-21.169-37.693l11.569-.009V96.8z" transform="matrix(1.3068719,0,0,1,-39.2796,0)"/>
 </g>
</svg>
